; G-Code generated by Simplify3D(R) Version 4.1.2
; Oct 25, 2024 at 8:30:25 AM
; Settings Summary
;   processName,Process1-test-FEM
;   applyToModels,0.50mm-nozzle-1.00mm-walls
;   profileName,Original Prusa i3 MK3/MK3S (modified)
;   profileVersion,2023-11-03 13:37:21
;   baseProfile,Prusa Mendel (modified)
;   printMaterial,PLA
;   printQuality,0.20mm NORMAL
;   printExtruders,
;   extruderName,Primary Extruder
;   extruderToolheadNumber,0
;   extruderDiameter,0.4
;   extruderAutoWidth,1
;   extruderWidth,0.48
;   extrusionMultiplier,0.95
;   extruderUseRetract,1
;   extruderRetractionDistance,0.8
;   extruderExtraRestartDistance,0
;   extruderRetractionZLift,0.4
;   extruderRetractionSpeed,2400
;   extruderUseCoasting,0
;   extruderCoastingDistance,0.2
;   extruderUseWipe,1
;   extruderWipeDistance,2
;   primaryExtruder,0
;   layerHeight,0.2
;   topSolidLayers,0
;   bottomSolidLayers,5
;   perimeterOutlines,2
;   printPerimetersInsideOut,1
;   startPointOption,3
;   startPointOriginX,0
;   startPointOriginY,300
;   sequentialIslands,0
;   spiralVaseMode,0
;   firstLayerHeightPercentage,75
;   firstLayerWidthPercentage,100
;   firstLayerUnderspeed,0.45
;   useRaft,1
;   raftExtruder,0
;   raftTopLayers,3
;   raftBaseLayers,0
;   raftOffset,1
;   raftSeparationDistance,0.14
;   raftTopInfill,100
;   aboveRaftSpeedMultiplier,0.3
;   useSkirt,1
;   skirtExtruder,0
;   skirtLayers,3
;   skirtOutlines,1
;   skirtOffset,2
;   usePrimePillar,0
;   primePillarExtruder,999
;   primePillarWidth,12
;   primePillarLocation,7
;   primePillarSpeedMultiplier,1
;   useOozeShield,0
;   oozeShieldExtruder,999
;   oozeShieldOffset,2
;   oozeShieldOutlines,1
;   oozeShieldSidewallShape,1
;   oozeShieldSidewallAngle,30
;   oozeShieldSpeedMultiplier,1
;   infillExtruder,0
;   internalInfillPattern,Grid
;   externalInfillPattern,Rectilinear
;   infillPercentage,20
;   outlineOverlapPercentage,25
;   infillExtrusionWidthPercentage,100
;   minInfillLength,2
;   infillLayerInterval,1
;   internalInfillAngles,45,-45
;   overlapInternalInfillAngles,1
;   externalInfillAngles,45,-45
;   generateSupport,1
;   supportExtruder,0
;   supportInfillPercentage,30
;   supportExtraInflation,1
;   supportBaseLayers,1
;   denseSupportExtruder,0
;   denseSupportLayers,0
;   denseSupportInfillPercentage,70
;   supportLayerInterval,1
;   supportHorizontalPartOffset,0.3
;   supportUpperSeparationLayers,1
;   supportLowerSeparationLayers,1
;   supportType,0
;   supportGridSpacing,3
;   maxOverhangAngle,45
;   supportAngles,0
;   temperatureName,Primary Extruder,Heated Bed
;   temperatureNumber,0,0
;   temperatureSetpointCount,2,1
;   temperatureSetpointLayers,1,2,1
;   temperatureSetpointTemperatures,215,210,60
;   temperatureStabilizeAtStartup,1,1
;   temperatureHeatedBed,0,1
;   fanLayers,1,2
;   fanSpeeds,0,100
;   blipFanToFullPower,0
;   adjustSpeedForCooling,1
;   minSpeedLayerTime,15
;   minCoolingSpeedSlowdown,35
;   increaseFanForCooling,0
;   minFanLayerTime,20
;   maxCoolingFanSpeed,50
;   increaseFanForBridging,1
;   bridgingFanSpeed,100
;   use5D,1
;   relativeEdistances,1
;   allowEaxisZeroing,1
;   independentExtruderAxes,0
;   includeM10123,0
;   stickySupport,1
;   applyToolheadOffsets,0
;   gcodeXoffset,0
;   gcodeYoffset,0
;   gcodeZoffset,0
;   overrideMachineDefinition,1
;   machineTypeOverride,0
;   strokeXoverride,250
;   strokeYoverride,210
;   strokeZoverride,210
;   originOffsetXoverride,0
;   originOffsetYoverride,0
;   originOffsetZoverride,0
;   homeXdirOverride,-1
;   homeYdirOverride,-1
;   homeZdirOverride,-1
;   flipXoverride,1
;   flipYoverride,-1
;   flipZoverride,1
;   toolheadOffsets,0,0|0,0|0,0|0,0|0,0|0,0
;   overrideFirmwareConfiguration,0
;   firmwareTypeOverride,RepRap (Marlin/Repetier/Sprinter)
;   GPXconfigOverride,r2
;   baudRateOverride,115200
;   overridePrinterModels,1
;   printerModelsOverride
;   startingGcode,M115 U3.6.0 ; tell printer latest fw version,M205 X8.00 Y8.00 Z0.40 E1.50 ; sets the jerk limits mm/sec,G28 W ; home all without mesh bed level,G80 ; mesh bed leveling,G1 Y-3.0 F1000.0 ; go outside printing area,G92 E0.0,G1 X60.0 E9.0  F1000.0 ; intro line,G1 X100.0 E12.5  F1000.0 ; intro line,G92 E0.0,M221 S100,M900 K30 ; Linear Advance PLA,
;   layerChangeGcode,
;   retractionGcode,
;   toolChangeGcode,
;   endingGcode,M104 S0 ; turn off temperature,M140 S0 ; turn off heatbed,M107 ; turn off fan,G1 X0 Y200 F2000 ; home X axis,M84 ; disable motors
;   exportFileFormat,gcode
;   celebration,0
;   celebrationSong,Take On Me
;   postProcessing,{REPLACE "; feature outer perimeter\n" "; feature outer perimeter\nM204 S800\n"},{REPLACE "; feature inner perimeter\n" "; feature inner perimeter\nM204 S1000\n"},{REPLACE "; feature solid layer\n" "; feature solid layer\nM204 S1000\n"},{REPLACE "; feature infill\n" "; feature infill\nM204 S1250\n"}
;   defaultSpeed,3600
;   outlineUnderspeed,0.5
;   solidInfillUnderspeed,0.65
;   supportUnderspeed,0.8
;   rapidXYspeed,10800
;   rapidZspeed,720
;   minBridgingArea,50
;   bridgingExtraInflation,1
;   bridgingExtrusionMultiplier,0.95
;   bridgingSpeedMultiplier,0.9
;   useFixedBridgingAngle,0
;   fixedBridgingAngle,0
;   applyBridgingToPerimeters,0
;   filamentDiameters,1.75|1.75|1.75|1.75|1.75|1.75
;   filamentPricesPerKg,24.99|24.99|24.99|24.99|24.99|24.99
;   filamentDensities,1.24|1.24|1.24|1.24|1.24|1.24
;   useMinPrintHeight,0
;   minPrintHeight,0
;   useMaxPrintHeight,0
;   maxPrintHeight,0
;   useDiaphragm,0
;   diaphragmLayerInterval,20
;   robustSlicing,1
;   mergeAllIntoSolid,0
;   onlyRetractWhenCrossingOutline,0
;   retractBetweenLayers,1
;   useRetractionMinTravel,1
;   retractionMinTravel,2
;   retractWhileWiping,1
;   onlyWipeOutlines,1
;   avoidCrossingOutline,1
;   maxMovementDetourFactor,3
;   toolChangeRetractionDistance,12
;   toolChangeExtraRestartDistance,-0.5
;   toolChangeRetractionSpeed,600
;   externalThinWallType,0
;   internalThinWallType,1
;   thinWallAllowedOverlapPercentage,20
;   singleExtrusionMinLength,1
;   singleExtrusionMinPrintingWidthPercentage,50
;   singleExtrusionMaxPrintingWidthPercentage,200
;   singleExtrusionEndpointExtension,0.2
;   horizontalSizeCompensation,0
G90
M83
M106 S0
M140 S60
M190 S60
M104 S215 T0
M109 S215 T0
M115 U3.6.0 ; tell printer latest fw version
M205 X8.00 Y8.00 Z0.40 E1.50 ; sets the jerk limits mm/sec
G28 W ; home all without mesh bed level
G80 ; mesh bed leveling
G1 Y-3.0 F1000.0 ; go outside printing area
G92 E0.0
G1 X60.0 E9.0  F1000.0 ; intro line
G1 X100.0 E12.5  F1000.0 ; intro line
G92 E0.0
M221 S100
M900 K30 ; Linear Advance PLA
; process Process1-test-FEM
; layer 1, Z = 0.167
T0
G1 E-0.8000 F2400
; feature skirt
; tool H0.167 W0.480
G1 Z0.400 F720
G1 X113.317 Y117.899 F10800
G1 Z0.167 F720
G1 E0.8000 F2400
G1 X112.101 Y116.683 E0.0543 F1620
G1 X111.760 Y115.860 E0.0282
G1 X111.760 Y94.140 E0.6863
G1 X112.101 Y93.317 E0.0282
G1 X113.317 Y92.101 E0.0543
G1 X114.140 Y91.760 E0.0282
G1 X135.860 Y91.760 E0.6863
G1 X136.683 Y92.101 E0.0282
G1 X137.899 Y93.317 E0.0543
G1 X138.240 Y94.140 E0.0282
G1 X138.240 Y115.860 E0.6863
G1 X137.899 Y116.683 E0.0282
G1 X136.683 Y117.899 E0.0543
G1 X135.860 Y118.240 E0.0282
G1 X114.140 Y118.240 E0.6863
G1 X113.317 Y117.899 E0.0282
G1 E-0.8000 F2400
; feature raft
; tool H0.167 W0.400
G1 Z0.567 F720
G1 X135.800 Y115.130 F10800
G1 Z0.167 F720
G1 E0.8000 F2400
G1 X135.130 Y115.800 E0.0249 F1215
G1 X134.565 Y115.800 E0.0149
G1 X135.800 Y114.565 E0.0460
G1 X135.800 Y113.999 E0.0149
G1 X133.999 Y115.800 E0.0671
G1 X133.433 Y115.800 E0.0149
G1 X135.800 Y113.433 E0.0881
G1 X135.800 Y112.868 E0.0149
G1 X132.868 Y115.800 E0.1092
G1 X132.302 Y115.800 E0.0149
G1 X135.800 Y112.302 E0.1303
G1 X135.800 Y111.736 E0.0149
G1 X131.736 Y115.800 E0.1513
G1 X131.171 Y115.800 E0.0149
G1 X135.800 Y111.171 E0.1724
G1 X135.800 Y110.605 E0.0149
G1 X130.605 Y115.800 E0.1935
G1 X130.039 Y115.800 E0.0149
G1 X135.800 Y110.039 E0.2145
G1 X135.800 Y109.474 E0.0149
G1 X129.474 Y115.800 E0.2356
G1 X128.908 Y115.800 E0.0149
G1 X135.800 Y108.908 E0.2566
G1 X135.800 Y108.342 E0.0149
G1 X128.342 Y115.800 E0.2777
G1 X127.776 Y115.800 E0.0149
G1 X135.800 Y107.776 E0.2988
G1 X135.800 Y107.211 E0.0149
G1 X127.211 Y115.800 E0.3198
G1 X126.645 Y115.800 E0.0149
G1 X135.800 Y106.645 E0.3409
G1 X135.800 Y106.079 E0.0149
G1 X126.079 Y115.800 E0.3620
G1 X125.514 Y115.800 E0.0149
G1 X135.800 Y105.514 E0.3830
G1 X135.800 Y104.948 E0.0149
G1 X124.948 Y115.800 E0.4041
G1 X124.382 Y115.800 E0.0149
G1 X135.800 Y104.382 E0.4252
G1 X135.800 Y103.817 E0.0149
G1 X123.817 Y115.800 E0.4462
G1 X123.251 Y115.800 E0.0149
G1 X135.800 Y103.251 E0.4673
G1 X135.800 Y102.685 E0.0149
G1 X122.685 Y115.800 E0.4884
G1 X122.120 Y115.800 E0.0149
G1 X135.800 Y102.120 E0.5094
G1 X135.800 Y101.554 E0.0149
G1 X121.554 Y115.800 E0.5305
G1 X120.988 Y115.800 E0.0149
G1 X135.800 Y100.988 E0.5516
G1 X135.800 Y100.423 E0.0149
G1 X120.423 Y115.800 E0.5726
G1 X119.857 Y115.800 E0.0149
G1 X135.800 Y99.857 E0.5937
G1 X135.800 Y99.291 E0.0149
G1 X119.291 Y115.800 E0.6147
G1 X118.726 Y115.800 E0.0149
G1 X135.800 Y98.726 E0.6358
G1 X135.800 Y98.160 E0.0149
G1 X118.160 Y115.800 E0.6569
G1 X117.594 Y115.800 E0.0149
G1 X135.800 Y97.594 E0.6779
G1 X135.800 Y97.028 E0.0149
G1 X117.028 Y115.800 E0.6990
G1 X116.463 Y115.800 E0.0149
G1 X135.800 Y96.463 E0.7201
G1 X135.800 Y95.897 E0.0149
G1 X115.897 Y115.800 E0.7411
G1 X115.331 Y115.800 E0.0149
G1 X135.800 Y95.331 E0.7622
G1 X135.800 Y94.766 E0.0149
G1 X114.766 Y115.800 E0.7833
G1 X114.669 Y115.800 E0.0026
G1 X114.434 Y115.566 E0.0087
G1 X135.566 Y94.434 E0.7869
G1 X135.331 Y94.200 E0.0087
G1 X135.234 Y94.200 E0.0026
G1 X114.200 Y115.234 E0.7833
G1 X114.200 Y114.669 E0.0149
G1 X134.669 Y94.200 E0.7622
G1 X134.103 Y94.200 E0.0149
G1 X114.200 Y114.103 E0.7411
G1 X114.200 Y113.537 E0.0149
G1 X133.537 Y94.200 E0.7201
G1 X132.972 Y94.200 E0.0149
G1 X114.200 Y112.972 E0.6990
G1 X114.200 Y112.406 E0.0149
G1 X132.406 Y94.200 E0.6779
G1 X131.840 Y94.200 E0.0149
G1 X114.200 Y111.840 E0.6569
G1 X114.200 Y111.275 E0.0149
G1 X131.275 Y94.200 E0.6358
G1 X130.709 Y94.200 E0.0149
G1 X114.200 Y110.709 E0.6148
G1 X114.200 Y110.143 E0.0149
G1 X130.143 Y94.200 E0.5937
G1 X129.577 Y94.200 E0.0149
G1 X114.200 Y109.577 E0.5726
G1 X114.200 Y109.012 E0.0149
G1 X129.012 Y94.200 E0.5516
G1 X128.446 Y94.200 E0.0149
G1 X114.200 Y108.446 E0.5305
G1 X114.200 Y107.880 E0.0149
G1 X127.880 Y94.200 E0.5094
G1 X127.315 Y94.200 E0.0149
G1 X114.200 Y107.315 E0.4884
G1 X114.200 Y106.749 E0.0149
G1 X126.749 Y94.200 E0.4673
G1 X126.183 Y94.200 E0.0149
G1 X114.200 Y106.183 E0.4462
G1 X114.200 Y105.618 E0.0149
G1 X125.618 Y94.200 E0.4252
G1 X125.052 Y94.200 E0.0149
G1 X114.200 Y105.052 E0.4041
G1 X114.200 Y104.486 E0.0149
G1 X124.486 Y94.200 E0.3830
G1 X123.921 Y94.200 E0.0149
G1 X114.200 Y103.921 E0.3620
G1 X114.200 Y103.355 E0.0149
G1 X123.355 Y94.200 E0.3409
G1 X122.789 Y94.200 E0.0149
G1 X114.200 Y102.789 E0.3198
G1 X114.200 Y102.224 E0.0149
G1 X122.224 Y94.200 E0.2988
G1 X121.658 Y94.200 E0.0149
G1 X114.200 Y101.658 E0.2777
G1 X114.200 Y101.092 E0.0149
G1 X121.092 Y94.200 E0.2566
G1 X120.527 Y94.200 E0.0149
G1 X114.200 Y100.527 E0.2356
G1 X114.200 Y99.961 E0.0149
G1 X119.961 Y94.200 E0.2145
G1 X119.395 Y94.200 E0.0149
G1 X114.200 Y99.395 E0.1935
G1 X114.200 Y98.829 E0.0149
G1 X118.829 Y94.200 E0.1724
G1 X118.264 Y94.200 E0.0149
G1 X114.200 Y98.264 E0.1513
G1 X114.200 Y97.698 E0.0149
G1 X117.698 Y94.200 E0.1303
G1 X117.132 Y94.200 E0.0149
G1 X114.200 Y97.132 E0.1092
G1 X114.200 Y96.567 E0.0149
G1 X116.567 Y94.200 E0.0881
G1 X116.001 Y94.200 E0.0149
G1 X114.200 Y96.001 E0.0671
G1 X114.200 Y95.435 E0.0149
G1 X115.435 Y94.200 E0.0460
G1 X114.870 Y94.200 E0.0149
G1 X114.200 Y94.870 E0.0249
G1 E-0.8000 F2400
; layer 2, Z = 0.389
M106 S255
M104 S210 T0
; feature skirt
; tool H0.222 W0.480
G1 Z0.567 F720
G1 X113.317 Y117.899 F10800
G1 Z0.389 F720
G1 E0.8000 F2400
G1 X112.101 Y116.683 E0.0724 F3600
G1 X111.760 Y115.860 E0.0375
G1 X111.760 Y94.140 E0.9150
G1 X112.101 Y93.317 E0.0375
G1 X113.317 Y92.101 E0.0724
G1 X114.140 Y91.760 E0.0375
G1 X135.860 Y91.760 E0.9150
G1 X136.683 Y92.101 E0.0375
G1 X137.899 Y93.317 E0.0724
G1 X138.240 Y94.140 E0.0375
G1 X138.240 Y115.860 E0.9150
G1 X137.899 Y116.683 E0.0375
G1 X136.683 Y117.899 E0.0724
G1 X135.860 Y118.240 E0.0375
G1 X114.140 Y118.240 E0.9150
G1 X113.317 Y117.899 E0.0375
G1 E-0.8000 F2400
; feature raft
; tool H0.222 W0.400
G1 Z0.789 F720
G1 X114.870 Y115.800 F10800
G1 Z0.389 F720
G1 E0.8000 F2400
G1 X114.200 Y115.130 E0.0332 F2700
G1 X114.200 Y114.565 E0.0199
G1 X115.435 Y115.800 E0.0613
G1 X116.001 Y115.800 E0.0199
G1 X114.200 Y113.999 E0.0894
G1 X114.200 Y113.433 E0.0199
G1 X116.567 Y115.800 E0.1175
G1 X117.132 Y115.800 E0.0199
G1 X114.200 Y112.868 E0.1456
G1 X114.200 Y112.302 E0.0199
G1 X117.698 Y115.800 E0.1737
G1 X118.264 Y115.800 E0.0199
G1 X114.200 Y111.736 E0.2018
G1 X114.200 Y111.171 E0.0199
G1 X118.829 Y115.800 E0.2299
G1 X119.395 Y115.800 E0.0199
G1 X114.200 Y110.605 E0.2579
G1 X114.200 Y110.039 E0.0199
G1 X119.961 Y115.800 E0.2860
G1 X120.527 Y115.800 E0.0199
G1 X114.200 Y109.473 E0.3141
G1 X114.200 Y108.908 E0.0199
G1 X121.092 Y115.800 E0.3422
G1 X121.658 Y115.800 E0.0199
G1 X114.200 Y108.342 E0.3703
G1 X114.200 Y107.776 E0.0199
G1 X122.224 Y115.800 E0.3984
G1 X122.789 Y115.800 E0.0199
G1 X114.200 Y107.211 E0.4265
G1 X114.200 Y106.645 E0.0199
G1 X123.355 Y115.800 E0.4545
G1 X123.921 Y115.800 E0.0199
G1 X114.200 Y106.079 E0.4826
G1 X114.200 Y105.514 E0.0199
G1 X124.486 Y115.800 E0.5107
G1 X125.052 Y115.800 E0.0199
G1 X114.200 Y104.948 E0.5388
G1 X114.200 Y104.382 E0.0199
G1 X125.618 Y115.800 E0.5669
G1 X126.183 Y115.800 E0.0199
G1 X114.200 Y103.817 E0.5950
G1 X114.200 Y103.251 E0.0199
G1 X126.749 Y115.800 E0.6231
G1 X127.315 Y115.800 E0.0199
G1 X114.200 Y102.685 E0.6511
G1 X114.200 Y102.120 E0.0199
G1 X127.880 Y115.800 E0.6792
G1 X128.446 Y115.800 E0.0199
G1 X114.200 Y101.554 E0.7073
G1 X114.200 Y100.988 E0.0199
G1 X129.012 Y115.800 E0.7354
G1 X129.577 Y115.800 E0.0199
G1 X114.200 Y100.423 E0.7635
G1 X114.200 Y99.857 E0.0199
G1 X130.143 Y115.800 E0.7916
G1 X130.709 Y115.800 E0.0199
G1 X114.200 Y99.291 E0.8197
G1 X114.200 Y98.725 E0.0199
G1 X131.275 Y115.800 E0.8478
G1 X131.840 Y115.800 E0.0199
G1 X114.200 Y98.160 E0.8758
G1 X114.200 Y97.594 E0.0199
G1 X132.406 Y115.800 E0.9039
G1 X132.972 Y115.800 E0.0199
G1 X114.200 Y97.028 E0.9320
G1 X114.200 Y96.463 E0.0199
G1 X133.537 Y115.800 E0.9601
G1 X134.103 Y115.800 E0.0199
G1 X114.200 Y95.897 E0.9882
G1 X114.200 Y95.331 E0.0199
G1 X134.669 Y115.800 E1.0163
G1 X135.234 Y115.800 E0.0199
G1 X114.200 Y94.766 E1.0444
G1 X114.200 Y94.669 E0.0034
G1 X114.434 Y94.434 E0.0116
G1 X135.566 Y115.566 E1.0492
G1 X135.800 Y115.331 E0.0116
G1 X135.800 Y115.234 E0.0034
G1 X114.766 Y94.200 E1.0444
G1 X115.331 Y94.200 E0.0199
G1 X135.800 Y114.669 E1.0163
G1 X135.800 Y114.103 E0.0199
G1 X115.897 Y94.200 E0.9882
G1 X116.463 Y94.200 E0.0199
G1 X135.800 Y113.537 E0.9601
G1 X135.800 Y112.972 E0.0199
G1 X117.028 Y94.200 E0.9320
G1 X117.594 Y94.200 E0.0199
G1 X135.800 Y112.406 E0.9039
G1 X135.800 Y111.840 E0.0199
G1 X118.160 Y94.200 E0.8758
G1 X118.725 Y94.200 E0.0199
G1 X135.800 Y111.275 E0.8478
G1 X135.800 Y110.709 E0.0199
G1 X119.291 Y94.200 E0.8197
G1 X119.857 Y94.200 E0.0199
G1 X135.800 Y110.143 E0.7916
G1 X135.800 Y109.577 E0.0199
G1 X120.423 Y94.200 E0.7635
G1 X120.988 Y94.200 E0.0199
G1 X135.800 Y109.012 E0.7354
G1 X135.800 Y108.446 E0.0199
G1 X121.554 Y94.200 E0.7073
G1 X122.120 Y94.200 E0.0199
G1 X135.800 Y107.880 E0.6792
G1 X135.800 Y107.315 E0.0199
G1 X122.685 Y94.200 E0.6511
G1 X123.251 Y94.200 E0.0199
G1 X135.800 Y106.749 E0.6231
G1 X135.800 Y106.183 E0.0199
G1 X123.817 Y94.200 E0.5950
G1 X124.382 Y94.200 E0.0199
G1 X135.800 Y105.618 E0.5669
G1 X135.800 Y105.052 E0.0199
G1 X124.948 Y94.200 E0.5388
G1 X125.514 Y94.200 E0.0199
G1 X135.800 Y104.486 E0.5107
G1 X135.800 Y103.921 E0.0199
G1 X126.079 Y94.200 E0.4826
G1 X126.645 Y94.200 E0.0199
G1 X135.800 Y103.355 E0.4545
G1 X135.800 Y102.789 E0.0199
G1 X127.211 Y94.200 E0.4265
